svg/pie_chart.svg

<svg xmlns="http://www.w3.org/2000/svg" viewBox="0 0 32 32" enable-background="new 0 0 32 32"><path d="M 16 3 C 8.8321429 3 3 8.8321429 3 16 C 3 23.167857 8.8321429 29 16 29 C 23.167857 29 29 23.167857 29 16 C 29 8.8321429 23.167857 3 16 3 z M 14.875 5.0625 C 14.916024 5.0583495 14.958843 5.0662007 15 5.0625 L 15 16 L 15 16.40625 L 15.28125 16.71875 L 23.0625 24.46875 C 21.154621 26.061987 18.687118 27 16 27 C 9.9130231 27 5 22.086977 5 16 C 5 10.293459 9.3197247 5.624552 14.875 5.0625 z M 17 5.0625 C 22.284136 5.5376347 26.462365 9.7158645 26.9375 15 L 17 15 L 17 5.0625 z M 18.4375 17 L 26.9375 17 C 26.731229 19.294013 25.861406 21.394814 24.46875 23.0625 L 18.4375 17 z" color="#000" overflow="visible" enable-background="accumulate"/></svg>

<svg xmlns="http://www.w3.org/2000/svg" viewBox="0 0 32 32"><path style="text-indent:0;text-align:start;line-height:normal;text-transform:none;block-progression:tb;-inkscape-font-specification:Bitstream Vera Sans" d="M16 3C8.832 3 3 8.832 3 16s5.832 13 13 13 13-5.832 13-13S23.168 3 16 3zm-1.125 2.063c.04-.005.084.003.125 0v11.343l.28.313 7.783 7.75C21.154 26.06 18.686 27 16 27 9.913 27 5 22.087 5 16c0-5.707 4.32-10.375 9.875-10.938zm2.125 0c5.284.475 9.462 4.653 9.938 9.937H17V5.062zM18.438 17h8.5c-.207 2.294-1.077 4.395-2.47 6.063L18.44 17z" color="#000" overflow="visible" font-family="Bitstream Vera Sans"/></svg>
